X: 6
T: The Haunted House
R: jig
M: 6/8
L: 1/8
K: Gmaj
D |: GFG AGA | BGE EDE | GBd egd | ege edB |GFG AGA | BGE EDE | GBd ege | dBA G2 D :||:GBd egd| ege edB | GBd ded | ded dBA |[1 GBd egd | ege dBA | GBd ege | dBA G3 :|[2 GFG AGA | BGE EDE | GBd ege | dBA G2 D ||


Tune 1098	Setting 14346

